icon_installer/data/icons/scalable/actions/show-merge-symbolic.svg

<?xml version="1.0" encoding="UTF-8"?>
<svg height="16px" viewBox="0 0 16 16" width="16px" xmlns="http://www.w3.org/2000/svg">
    <path d="m 9 0 l -4 3 l 4 3 v -2 h 2 c 0.167969 0 0.449219 0.113281 0.667969 0.332031 s 0.332031 0.5 0.332031 0.667969 v 6.273438 c -0.617188 0.355468 -0.996094 1.015624 -1 1.726562 c 0 1.105469 0.894531 2 2 2 s 2 -0.894531 2 -2 c 0 -0.714844 -0.382812 -1.375 -1 -1.730469 v -6.269531 c 0 -0.832031 -0.386719 -1.550781 -0.917969 -2.082031 s -1.25 -0.917969 -2.082031 -0.917969 h -2 z m -4 3 c 0 -1.105469 -0.894531 -2 -2 -2 s -2 0.894531 -2 2 c 0.003906 0.710938 0.382812 1.371094 1 1.726562 v 6.546876 c -0.617188 0.355468 -0.996094 1.015624 -1 1.726562 c 0 1.105469 0.894531 2 2 2 s 2 -0.894531 2 -2 c 0 -0.714844 -0.382812 -1.375 -1 -1.730469 v -6.542969 c 0.617188 -0.355468 0.996094 -1.015624 1 -1.726562 z m 0 0" fill="#222222"/>
</svg>

<svg xmlns="http://www.w3.org/2000/svg" width="16" height="16"><path fill="#222" d="M9 0 5 3l4 3V4h2c.168 0 .45.113.668.332S12 4.832 12 5v6.273A2.005 2.005 0 0 0 11 13a2 2 0 1 0 3-1.73V5c0-.832-.387-1.55-.918-2.082S11.832 2 11 2H9zM5 3a2 2 0 1 0-4 0c.004.71.383 1.371 1 1.727v6.546A2.005 2.005 0 0 0 1 13a2 2 0 1 0 3-1.73V4.727A2.005 2.005 0 0 0 5 3zm0 0"/></svg>
